X: 1029
T: The Ruins of Killmallock
N:"Collected by F.O'Neill"
B:O'Neill's 1029
Z:Transcribed by Dan G. Petersen, dangp@post6.tele.dk
Z:In the manuscript first note in line 3 is too long: 'e2'
M:6/8
L:1/8
K:A
(A/B/)|cBc dcd|ecA AGE|{d}cBd cBA|GEF GAB|
{d}cBc dcd|ecA Bcd|cBA BGE|EAA A2:|
e|{b}aga ece|agf edc|{e}dcd BGB|Acd efg|
{b}aga ece|agf edc|Bcd efg|aAA A2:|


